src/svgs/airplane.svg

<?xml version="1.0" encoding="UTF-8" standalone="no"?>
<!-- Created with Inkscape (http://www.inkscape.org/) -->

<svg
   xmlns:dc="http://purl.org/dc/elements/1.1/"
   xmlns:cc="http://creativecommons.org/ns#"
   xmlns:rdf="http://www.w3.org/1999/02/22-rdf-syntax-ns#"
   xmlns:svg="http://www.w3.org/2000/svg"
   xmlns="http://www.w3.org/2000/svg"
   xmlns:xlink="http://www.w3.org/1999/xlink"
   xmlns:sodipodi="http://sodipodi.sourceforge.net/DTD/sodipodi-0.dtd"
   xmlns:inkscape="http://www.inkscape.org/namespaces/inkscape"
   width="20"
   height="20"
   id="svg5738"
   version="1.1"
   inkscape:version="0.91 r13725"
   sodipodi:docname="airplane.svg">
  <defs
     id="defs5740">
    <linearGradient
       inkscape:collect="always"
       xlink:href="#linearGradient4103"
       id="linearGradient4184"
       gradientUnits="userSpaceOnUse"
       x1="3003"
       y1="10"
       x2="3017"
       y2="10"
       gradientTransform="translate(1,2.6171874e-6)" />
    <linearGradient
       inkscape:collect="always"
       id="linearGradient4103">
      <stop
         style="stop-color:#000000;stop-opacity:1;"
         offset="0"
         id="stop4105" />
      <stop
         style="stop-color:#000000;stop-opacity:0;"
         offset="1"
         id="stop4107" />
    </linearGradient>
  </defs>
  <sodipodi:namedview
     id="base"
     pagecolor="#ffffff"
     bordercolor="#666666"
     borderopacity="1.0"
     inkscape:pageopacity="0.0"
     inkscape:pageshadow="2"
     inkscape:zoom="1"
     inkscape:cx="10.131544"
     inkscape:cy="9.1861481"
     inkscape:document-units="px"
     inkscape:current-layer="layer1"
     showgrid="false"
     inkscape:window-width="2078"
     inkscape:window-height="1054"
     inkscape:window-x="440"
     inkscape:window-y="115"
     inkscape:window-maximized="0"
     showguides="false"
     inkscape:snap-bbox="true"
     inkscape:bbox-paths="true"
     inkscape:bbox-nodes="true"
     inkscape:object-paths="true"
     inkscape:object-nodes="true"
     inkscape:snap-smooth-nodes="true"
     inkscape:snap-others="false"
     inkscape:snap-nodes="true">
    <inkscape:grid
       type="xygrid"
       id="grid5746"
       empspacing="2"
       visible="true"
       enabled="true"
       snapvisiblegridlinesonly="true"
       spacingx="0.5px"
       spacingy="0.5px"
       color="#0000ff"
       opacity="0.05882353" />
  </sodipodi:namedview>
  <metadata
     id="metadata5743">
    <rdf:RDF>
      <cc:Work
         rdf:about="">
        <dc:format>image/svg+xml</dc:format>
        <dc:type
           rdf:resource="http://purl.org/dc/dcmitype/StillImage" />
        <dc:title></dc:title>
      </cc:Work>
    </rdf:RDF>
  </metadata>
  <g
     inkscape:label="Layer 1"
     inkscape:groupmode="layer"
     id="layer1"
     transform="translate(0,-1032.3622)">
    <path
       style="color:#000000;clip-rule:nonzero;display:inline;overflow:visible;visibility:visible;opacity:1;isolation:auto;mix-blend-mode:normal;color-interpolation:sRGB;color-interpolation-filters:linearRGB;solid-color:#000000;solid-opacity:1;fill:#000000;fill-opacity:1;fill-rule:nonzero;stroke:none;stroke-width:2;stroke-linecap:round;stroke-linejoin:round;stroke-miterlimit:4;stroke-dasharray:none;stroke-dashoffset:0;stroke-opacity:1;marker:none;color-rendering:auto;image-rendering:auto;shape-rendering:auto;text-rendering:auto;enable-background:accumulate"
       d="M 8 5 L 9.5996094 9 L 6.5 9 C 6.5 9 5.118034 7 4 7 L 3.25 7 L 4 9 L 5 12 L 9.5996094 12 L 8 16 L 10 16 L 13.199219 12 L 15 12 C 16 12 17 11.3333 17 10.5 C 17 9.6667 16 9 15 9 L 13.199219 9 L 10 5 L 8 5 z "
       transform="translate(0,1032.3622)"
       id="path12194" />
  </g>
</svg>

<?xml version="1.0" encoding="UTF-8" standalone="yes"?>
<svg viewBox="0 0 20 20">
  <path d="M8,5l1.6,4H6.5c0,0-1.4-2-2.5-2H3.2L4,9l1,3h4.6L8,16h2l3.2-4H15c1,0,2-0.7,2-1.5S16,9,15,9h-1.8L10,5H8z"/>
</svg>
